X:32
T:Milliner's Daughter
S:Trad, arr. Paddy O'Brien 
R:reel
E:9
I:speed 350
M:C|
K:G
F|~G2BG DGBG|~A2eg fdcA|~G2BG DGBd|cAFG AGGF|\
~G2BG DGBG|~A2eg fdcA|GB~B2 FGAB | cAFG AG G:|\
B|:dg~g2 dg~g2|df ~f2 df ~f2|dg~g2 agfe|~d2eg fdcA|\
dg~g2 bgaf|d^cde fefg|afge fde^c|~d2eg fdcA:|** 

